icon-svg/tesla-hood.svg

<svg xmlns="http://www.w3.org/2000/svg" fill="#44739e" viewBox="0 0 24 24"><path d="m19.99 16.3-4.6-.021c0-.044.006-.086.006-.131a5.017 5.017 0 1 0-10.033 0v.085L3.9 16.227v-3.083a1.363 1.363 0 0 1 1.066-1.33l3.021-.965a15.07 15.07 0 0 1 4.233-.709l3-.068a4.92 4.92 0 0 0 2.046-.366l3.851-1.917c.7-.371 1.128-.816.757-1.514-.275-.516-1.468-.224-1.985.051L16.467 7.7c-.168.09-.339.164-.488.227a16.01 16.01 0 0 0-5.109-3.761A14.364 14.364 0 0 0 4.3 2.848a1.5 1.5 0 0 0-.878.282.735.735 0 0 0-.287.656 1.34 1.34 0 0 0 .816.967 2.92 2.92 0 0 0 1.406.318l.218-.007c.171-.006.342-.014.519-.008a11.2 11.2 0 0 1 7.09 3.089 17.02 17.02 0 0 0-5.127.744c-.8.194-1.6.428-2.376.7l-1.53.528A3.185 3.185 0 0 0 2 13.125v3.764c0 1.145.511 1.452 1.7 1.453l2.187.022a5.007 5.007 0 0 0 8.946.091l5.23.052A1.174 1.174 0 0 0 21.3 17.45a1.175 1.175 0 0 0-1.31-1.15m-7.09-.031a2.52 2.52 0 0 1-1.426 2.152 2.43 2.43 0 0 1-2.22-.023 2.522 2.522 0 0 1-1.388-2.153c0-.032-.009-.063-.009-.1a2.528 2.528 0 1 1 5.055 0c-.002.045-.012.083-.012.124"/></svg>

<?xml version="1.0" encoding="UTF-8"?>
<svg width="24px" fill="#44739e" height="24px" viewBox="0 0 24 24" version="1.1" xmlns="http://www.w3.org/2000/svg" xmlns:xlink="http://www.w3.org/1999/xlink">
            <path d="m 19.99,16.3 -4.6,-0.021 c 0,-0.044 0.006,-0.086 0.006,-0.131 a 5.017,5.017 0 1 0 -10.033,0 c 0,0.029 0,0.056 0,0.085 L 3.9,16.227 v -3.083 a 1.363,1.363 0 0 1 1.066,-1.33 L 7.987,10.849 A 15.065,15.065 0 0 1 12.22,10.14 l 3,-0.068 A 4.917,4.917 0 0 0 17.266,9.706 L 21.117,7.789 C 21.817,7.418 22.245,6.973 21.874,6.275 21.599,5.759 20.406,6.051 19.889,6.326 L 16.467,7.7 C 16.299,7.79 16.128,7.864 15.979,7.927 A 16.008,16.008 0 0 0 10.87,4.166 14.364,14.364 0 0 0 4.3,2.848 1.5,1.5 0 0 0 3.422,3.13 0.735,0.735 0 0 0 3.135,3.786 1.34,1.34 0 0 0 3.951,4.753 2.921,2.921 0 0 0 5.357,5.071 L 5.575,5.064 C 5.746,5.058 5.917,5.05 6.094,5.056 a 11.2,11.2 0 0 1 7.09,3.089 17.022,17.022 0 0 0 -5.127,0.744 c -0.8,0.194 -1.6,0.428 -2.376,0.7 l -1.53,0.528 A 3.185,3.185 0 0 0 2,13.125 v 3.764 c 0,1.145 0.511,1.452 1.7,1.453 l 2.187,0.022 a 5.007,5.007 0 0 0 8.946,0.091 l 5.23,0.052 A 1.174,1.174 0 0 0 21.3,17.45 v 0 A 1.175,1.175 0 0 0 19.99,16.3 Z M 12.9,16.269 a 2.52,2.52 0 0 1 -1.426,2.152 2.43,2.43 0 0 1 -2.22,-0.023 2.522,2.522 0 0 1 -1.388,-2.153 c 0,-0.032 -0.009,-0.063 -0.009,-0.1 a 2.528,2.528 0 1 1 5.055,0 C 12.91,16.19 12.9,16.228 12.9,16.269 Z"/>

</svg>
